**kern	**kern
*staff2	*staff1
*clefF4	*clefG2
*k[b-]	*k[b-]
*M3/8	*M3/8
*F:	*F:
=1-	=1-
8F 8A 8c	8fL
8r	8a
8F 8A 8c	8fJ
=2	=2
8C 8E 8G 8c	16ccLL
.	16b
8r	16cc
.	16ddJ
8r	8ccJ
=3	=3
8C 8E 8G 8c	8b-L
8r	8g
8C 8E 8G 8c	8ccJ
=4	=4
8F 8A 8c	8aL
8r	16gL
.	16aJ
8r	8fJ
=5	=5
8F 8A 8c	8fL
8r	8a
8F 8A 8c	8bJ
=6	=6
8E 8G 8c	16ccLL
.	16b
8r	16cc
.	16ddJ
8C	8eeJ
=7	=7
8FL	8fL 8a 8dd
8G	8e 8g 8cc
8GGJ	8dJ 8f 8g 8b
=8	=8
4.C;	4.e; 4.g; 4.cc;
=9	=9
*staff2	*staff1
*clefF4	*clefG2
*k[b-]	*k[b-]
*M3/8	*M3/8
*F:	*F:
=	=
8r	8ccL
8AL 8f	8cc
8FJ 8f	8ffJ
=10	=10
4B- 4f	16ddLL
.	16ee
.	16ff
.	16ddJ
8A 8f	8ccJ
=11	=11
8r	8ccL
8AL 8f	8cc
8FJ 8f	8ffJ
=12	=12
4B- 4f	16ddLL
.	16ee
.	16ff
.	16ddJ
8A 8f	8ccJ
=13	=13
8B-L	8gg'L
8G	8ee'J
8EJ	8r
=14	=14
8C	8g'L 8b-'
8r	8e'J 8g'
8r;	8r;
=15	=15
8A	8ffL
8r	8f
8r	8aJ
=16	=16
8B-	8fL 8g
8r	8fJ 8g
8r	8r
=17	=17
8cL	8aL 8cc
8c	16fL 16a
.	16a 16cc
8CJ	16g 16b-
.	16eJJ 16g
=18	=18
8F	8f
8r	8r
8r	8r
=19	=19
*staff2	*staff1
*clefF4	*clefG2
*k[b-]	*k[b-]
*M3/8	*M3/8
*F:	*F:
=	=
8cL	8b-'L 8gg'
8c	8g'J 8ee'
8cJ	8r
=20	=20
8C	8g'L 8b-'
8r	8e'J 8g'
8r;	8r;
=21	=21
8A	8ffL
8r	8f
8r	8aJ
=22	=22
8B-	8fL 8g
8r	8fJ 8g
8r	8r
=23	=23
8c	8aL 8cc
8r	16fL 16a
.	16a 16cc
8C	16g 16b-
.	16eJJ 16g
=24	=24
8FL	8f
8C	8r
8FFJ	8r
=25||	=25||
*staff2	*staff1
*clefF4	*clefG2
*k[b-]	*k[b-]
*M3/8	*M3/8
*F:	*F:
=	=
4.r	(16fLL
.	16a
.	16cc
.	16ff
.	16aa
.	16ggJJ)
=26	=26
(16CLL	(8ff
16E	.
16G	[4ee
16c	.
16e	.
16gJJ)	.
=27	=27
(8b-L	16eeLL])
.	(16ff
8cJ)	16ff#
.	16gg
8r	16ee
.	16ccJJ)
=28	=28
(16FFLL	(8b-
16AA	.
16C	4a)
16F	.
16A	.
16cJJ)	.
=29	=29
(8AL	(16fLL
.	16a
8FJ)	16cc
.	16ff
8r	16aa
.	16bbJJ)
=30	=30
(16ELL	(8ddd
16G	.
16c	4ccc)
16e	.
16g	.
16ccJJ)	.
=31	=31
*^	*
4.r	4r	(16eeLL 16gg
.	.	16dd# 16ff#
.	.	16ee 16gg
.	.	16cc) 16ee
.	8GG	16dd' 16ff'
*v	*v	*^
.	16b'JJ	16r
*	*v	*v
=32	=32
*^	*
16r	4.C	(4f 4dd
(16GLL	.	.
16A	.	.
16BJ	.	.
8cJ)	.	8e) 8cc
*v	*v	*
=33	=33
*staff2	*staff1
*clefF4	*clefG2
*k[b-]	*k[b-]
*M3/8	*M3/8
*F:	*F:
=	=
4.r	(16ccLL
.	16f
.	16a
.	16cc
.	16ff
.	16ccJJ)
=34	=34
(16B-LL	(4dd
16d	.
16f	.
16b-	.
16a	8cc)
16fJJ)	.
=35	=35
(16cLL	4.r
16F	.
16A	.
16c	.
16f	.
16cJJ)	.
=36	=36
(4d	(16b-LL
.	16dd
.	16ff
.	16bb-
8c)	16aa
.	16ffJJ)
=37	=37
8c'L	(16eeLL
.	16gg)
8C'J	(16b-
.	16ee)
8r	(16g
.	16b-JJ)
=38	=38
8C'	(16eLL
.	16gJJ)
4CC; 4C;	4E; 4G; 4B-;
=39	=39
(16AALL	(16ffLL
16C	16cc
16F)	16a)
16F'	16a'
16F'	16a'
16F'JJ	16a'JJ
=40	=40
(16BB-LL	(16ddLL
16D	16b-
16G)	16g)
16G'	16g'
16G'	16g'
16G'JJ	16g'JJ
=41	=41
(16CLL	(16ccLL
16F	16a
16A	16f)
16C	(16b-
16G	16g
16B-JJ)	16eJJ)
=42	=42
8F 8A	(16fLL
.	16a
8r	16cc
.	16ff
8r	16aa
.	16ffJJ)
=43	=43
*staff2	*staff1
*clefF4	*clefG2
*k[b-]	*k[b-]
*M3/8	*M3/8
*F:	*F:
=	=
8c'L	(16eeLL
.	16gg)
8C'J	(16b-
.	16ee)
8r	(16g
.	16b-JJ)
=44	=44
8C'	(16eLL
.	16gJJ)
4CC; 4C;	4E; 4G; 4B-;
=45	=45
(16ALL	(16fffLL
16c	16ccc
16fJJ)	16aaJJ)
16AA'LL	16A'LL 16c' 16f'
16AA'	16A' 16c' 16f'
16AA'JJ	16A'JJ 16c' 16f'
=46	=46
(16B-LL	(16dddLL
16d	16bb-
16gJJ)	16ggJJ)
16BB-'LL	16B-'LL 16d' 16g'
16BB-'	16B-' 16d' 16g'
16BB-'JJ	16B-'JJ 16d' 16g'
=47	=47
(16cLL	(16cccLL
16f	16aa
16a	16ff)
16c	(16bb-
16g	16gg
16b-JJ)	16eeJJ)
=48	=48
8f 8a	(16ffLL
.	16a
16r	16fJJ)
(16FLK	16r
8FFJ)	8r
=49||	=49||
*staff2	*staff1
*clefF4	*clefG2
*k[b-]	*k[b-]
*M3/8	*M3/8
*F:	*F:
=	=
8FF 8F	24r
.	24F'LL
.	24A'J
8r	24c'L
.	(24f
.	24eJ)
8r	24f'L
.	24a'
.	24f'JJ
=50	=50
8EE 8E	24r
.	24c'LL
.	24e'J
8r	24g'L
.	(24cc
.	24bJ)
8r	24dd'L
.	24b'
.	24cc'JJ
=51	=51
8CC 8C	24r
.	24e'LL
.	24g'J
8r	24b-'L
.	(24ee
.	24ffJ)
8r	24gg'L
.	24ee'
.	24b-'JJ
=52	=52
8FF 8F	24r
.	(24aLL
.	24aaJ)
8r	24ff'L
.	24cc'
.	24a'J
8r	24f'L
.	24c'
.	24A'JJ
=53	=53
8FF 8F	24r
.	24f'LL
.	24a'J
8r	24cc'L
.	24ff'
.	24aa'J
*clefG2	*
8f' 8g'	24dd'L
.	(24ccc
.	24bbJJ)
=54	=54
8e'L 8g'	24ee'LL
.	(24ddd
.	24cccJ)
8d' 8f'	24ff'L
.	(24eee
.	24dddJ)
8c'J 8e'	24gg'L
.	(24fff
.	24eeeJJ)
*clefF4	*
=55	=55
8F'L	24r
.	(24ggLL 24eee
.	24ffJJ) 24ddd
8G'	24r
.	(24ffLL 24ddd
.	24eeJJ) 24ccc
8GG'J	24r
.	(24eeLL 24ccc
.	24ddJJ) 24bb
=56	=56
8C	24r
.	(24cccLL
.	24bbJ
8r	24cccL
.	24gg
.	24ffJ
8r	24eeL
.	24dd
.	24ccJJ)
=57	=57
*staff2	*staff1
*clefF4	*clefG2
*k[b-]	*k[b-]
*M3/8	*M3/8
*F:	*F:
=	=
8r	(24bLL
.	24dd
.	24ccJ
8AL 8f	24ffL
.	24cc
.	24ffJ
8FJ 8f	24cc#L
.	24ff
.	24cc#JJ)
=58	=58
4B- 4f	(24ddLL
.	24ff
.	24bb-J
.	24dddL
.	24fff
.	24dddJ
8A 8f	24cccL
.	24fff
.	24cccJJ)
=59	=59
8r	(24bLL
.	24dd
.	24ccJ
8AL 8f	24ffL
.	24cc
.	24ffJ
8FJ 8f	24cc#L
.	24ff
.	24cc#JJ)
=60	=60
4B- 4f	(24ddLL
.	24ff
.	24bb-J
.	24dddL
.	24fff
.	24dddJ
8A 8f	24cccL
.	24fff
.	24cccJJ)
=61	=61
8c'L 8g'	24bb-'LL
.	(24gg
.	24ff#J
8c'J 8e'	24gg'L)
.	(24ee
.	24dd#J
8r	24ee'L)
.	(24b-
.	24aJJ)
=62	=62
8C 8G	24b-'LL
.	(24g
.	24f#JJ)
4C; 4E;	4g;
=63	=63
8AA 8C 8F	24r
.	(24ffLL
.	24eeJ)
8r	24ff'L
.	24cc'
.	24b-'J
8r	24a'L
.	24g'
.	24f'JJ
=64	=64
8BB- 8D 8G	24r
.	(24ddLL
.	24cc#J)
8r	24ee'L
.	24dd'
.	24cc'J
8r	24b-'L
.	24a'
.	24g'JJ
=65	=65
8r	(24ccLL
.	24b
.	24ddJ
8CL 8F 8A	24ccL
.	24a
.	24fJ
8CJ 8G 8B-	24b-L
.	24g
.	24eJJ)
=66	=66
8F 8A	24f'LL
.	24a'
.	24b-'J
8r	24cc'L
.	24dd'
.	24ee'J
8r	24ff'L
.	24gg'
.	24aa'JJ
=67	=67
*staff2	*staff1
*clefF4	*clefG2
*k[b-]	*k[b-]
*M3/8	*M3/8
*F:	*F:
=	=
8c'L 8g' 8b-'	24bb-'LL
.	(24gg
.	24ff#J)
8c'J 8e' 8g'	24gg'L
.	(24ee
.	24dd#J)
8r	24ee'L
.	(24b-
.	24aJJ)
=68	=68
8C 8G 8B-	24b-'LL
.	(24g
.	24f#JJ)
4C; 4E; 4G;	4g;
=69	=69
8AA 8C 8F	24r
.	(24fffLL
.	24eeeJ
8r	24fff'L)
.	24ccc'
.	24bb-'J
8r	24aa'L
.	24gg'
.	24ff'JJ
=70	=70
8BB- 8D 8G	24r
.	(24dddLL
.	24ccc#J
8r	24eee'L)
.	24ddd'
.	24ccc'J
8r	24bb-'L
.	24aa'
.	24gg'JJ
=71	=71
8r	24cccLL
.	24aa
.	24ffJ
8CL 8F 8A	24ccL
.	24a
.	24fJ
8CJ 8G 8B-	24b-L
.	24g
.	24eJJ
=72	=72
8r	24fLL
.	24c
.	24AJJ
24FLL	8r
24C	.
24AAJJ	.
8FF	8r
=73||	=73||
*staff2	*staff1
*clefF4	*clefG2
*k[b-]	*k[b-]
*M3/8	*M3/8
*F:	*F:
=	=
16FFLL	16r
32r	16f 16a 16cc
(32GGJ	.
16AA)	16r
32r	16f 16a 16cc
(32GGJ	.
16AA)	16r
32r	16f 16a 16cc
(32FFJJJ	.
=74	=74
16CLL)	16r
32r	16e 16g 16cc
(32CJ	.
16BB)	16r
32r	16e 16g 16cc
(32CJ	.
16D)	16r
32r	16e 16g 16cc
(32CJJJ	.
=75	=75
16BB-LL)	16r
32r	16e 16g 16cc
(32AAJ	.
16GG)	16r
32r	16e 16g 16cc
(32CJ	.
16BB)	16r
32r	16e 16g 16cc
(32CJJJ	.
=76	=76
16BB-LL)	16r
32r	16f 16a 16cc
(32AAJ	.
16GG)	16r
32r	16f 16a 16cc
(32FFJ	.
16EE)	16r
32r	16f 16a 16cc
(32FFJJJ	.
=77	=77
16FFFLL)	16r
32r	16a 16cc 16ff
(32FFJ	.
16AA)	16r
32r	16a 16cc 16ff
(32FFJ	.
16AA)	16r
32r	16a 16cc 16ff
(32BBJJJ	.
=78	=78
16CLL)	16r
32r	16g 16cc 16ee
(32BBJ	.
16C)	16r
32r	16g 16cc 16ee
(32DJ	.
16E)	16r
32r	16g 16cc 16ee
(32CJJJ	.
=79	=79
16FLL)	16r
32r	16f 16a 16dd
(32DJ	.
16G)	16r
32r	16e 16g 16cc
(32F#J	.
16G)	16r
32r	16d 16f 16g 16b
(32GGJJJ	.
=80	=80
16CLL)	16r
32r	16e 16g 16cc
(32CJ	.
16BB)	16r
32r	16e 16g 16cc
(32CJ	.
16BB-)	16r
32r	16e 16g 16cc
(32CJJJ	.
=81	=81
*staff2	*staff1
*clefF4	*clefG2
*k[b-]	*k[b-]
*M3/8	*M3/8
*F:	*F:
=	=
16AALL)	16r
32r	16f 16cc
(32GGJ	.
16FF)	16r
32r	16f 16cc 16ff
(32GGJ	.
16AA)	16r
32r	16f 16cc 16ff
(32FFJJJ	.
=82	=82
16BB-LL)	16r
32r	16f 16dd 16ff
(32FFJ	.
16AA)	16r
32r	16f 16cc 16ff
(32FFJ	.
16AA)	16r
32r	16f 16cc 16ff
(32FFJJJ	.
=83	=83
16AALL)	16r
32r	16f 16cc 16ff
(32GGJ	.
16FF)	16r
32r	16f 16cc 16ff
(32GGJ	.
16AA)	16r
32r	16f 16cc 16ff
(32FFJJJ	.
=84	=84
16BB-LL)	16r
32r	16f 16dd 16ff
(32FFJ	.
16AA)	16r
32r	16f 16cc 16ff
(32FFJ	.
16AA)	16r
32r	16f 16cc 16ff
(32FFJJJ	.
=85	=85
16CLL)	16r
32r	16b- 16cc 16gg
(32CCJ	.
16EE)	16r
32r	16g 16cc 16ee
(32GGJ	.
16C)	16r
32r	16e 16g 16cc
(32EJJJ	.
=86	=86
16GLL)	16r
32r	16c 16e 16b-
(32GJJJ	.
4B-;)	16r
.	8.c; 8.e; 8.g;
=87	=87
16AALL	16r
32r	16f 16ff
(32CJ	.
16F)	16r
32r	16f
(32AAJ	.
16C)	16r
32r	16f
(32FJJJ	.
=88	=88
16BB-LL)	16r
32r	16f 16g
(32DJ	.
16G)	16r
32r	16f 16g
(32BBJ	.
16D)	16r
32r	16f 16g
(32GJJJ	.
=89	=89
16CLL)	16r
32r	16f 16a
(32cJ	.
16C)	16r
32r	16e 16b-
(32cJ	.
16C)	16r
32r	16e 16g
(32cJJJ	.
=90	=90
8F)	16f'LL
.	(16cc
8r	16b
.	16cc
8r	16dd
.	16ccJJ)
=91	=91
*staff2	*staff1
*clefF4	*clefG2
*k[b-]	*k[b-]
*M3/8	*M3/8
*F:	*F:
=	=
16CLL	16b-LL
32r	16b-JJ 16cc 16gg
(32CCJ	.
16EE)	16r
32r	16g 16cc 16ee
(32GGJ	.
16C)	16r
32r	16e 16g 16cc
(32EJJJ	.
=92	=92
16GLL)	16r
32r	16c 16e 16b-
(32GJJJ	.
4B-;)	16r
.	8.c; 8.e; 8.g;
=93	=93
16AALL	16r
32r	16f 16ff
(32CJ	.
16F)	16r
32r	16f 16ff
(32AAJ	.
16C)	16r
32r	16f 16ff
(32FJJJ	.
=94	=94
16BB-LL)	16r
32r	16g 16ff 16gg
(32DJ	.
16G)	16r
32r	16g 16ff 16gg
(32BBJ	.
16D)	16r
32r	16g 16ff 16gg
(32GJJJ	.
=95	=95
16CLL)	16r
32r	16a 16ff 16aa
(32cJ	.
16C)	16r
32r	16b- 16ee 16bb-
(32cJ	.
16C)	16r
32r	16b- 16ee 16gg
(32cJJJ	.
=96	=96
16FLL)	16r
32r	16a 16ff
(32FJ	.
16C)	16r
32r	16A 16f
(32AAJJJ	.
8FF)	8r
=97||	=97||
*staff2	*staff1
*clefF4	*clefG2
*k[b-]	*k[b-]
*M3/8	*M3/8
*F:	*F:
=	=
48FFFLLL	8r
48CC	.
48FFJJ	.
48AALL	.
48C	.
48FJJ	.
48FFLL	16r
48C	.
48FJJJ	.
16r	48ALLL
.	48c
.	48fJJJ
48FLLL	16r
48A	.
48cJJJ	.
16r	48aLLL
.	48cc
.	48ffJJJ
=98	=98
8E 8G 8c	(16aaLL
.	16gg
8r	16ff
.	16ee
8r	16dd
.	16ccJJ)
=99	=99
48CCLLL	8r
48GG	.
48CJJ	.
48ELL	.
48G	.
48B-JJ	.
48CLL	16r
48G	.
48B-JJJ	.
16r	48eLLL
.	48g
.	48b-JJJ
48B-LLL	16r
48e	.
48gJJJ	.
16r	48eeLLL
.	48gg
.	48bb-JJJ
=100	=100
8F 8A 8d	(16dddLL
.	16ccc
8r	16bb-
.	16aa
8r	16gg
.	16ffJJ)
=101	=101
48FFLLL	8r
48C	.
48FJJ	.
48cLL	.
48f	.
48aJJ	.
48FLL	16r
48c	.
48fJJJ	.
16r	48ccLLL
.	48ff
.	48aaJJJ
*clefG2	*
48fLLL	16r
48g	.
48bJJJ	.
16r	48ddLLL
.	48gg
.	48bbJJJ
=102	=102
8e 8g 8cc	(16cccLL
.	16bb
8r	16aa
.	16gg
8r	16ff
.	16eeJJ)
*clefF4	*
=103	=103
16FLL	(16ccLL 16dd
16f	16aa
16G	16cc
16e	16gg
16G	16f
16dJJ	16bJJ)
=104	=104
*^	*
16r	4.C	(4f 4dd
16GLL	.	.
16A	.	.
16BJ	.	.
8cJ	.	8e) 8cc
*v	*v	*
=105	=105
*staff2	*staff1
*clefF4	*clefG2
*k[b-]	*k[b-]
*M3/8	*M3/8
*F:	*F:
=	=
48AALLL	16r
48C	.
48FJJJ	.
16r	48ALLL
.	48c
.	48fJJJ
48ALLL	16r
48c	.
48fJJJ	.
16r	48aLLL
.	48cc
.	48ffJJJ
*clefG2	*
48aLLL	16r
48cc	.
48ffJJJ	.
16r	48aaLLL
.	48ccc
.	48fffJJJ
=106	=106
4b- 4ff	16r
.	(16dddLL
.	16fff
.	16ddd
*clefF4	*
8a 8ff	16bb
.	16cccJJ)
=107	=107
48AALLL	16r
48C	.
48FJJJ	.
16r	48ALLL
.	48c
.	48fJJJ
48ALLL	16r
48c	.
48fJJJ	.
16r	48aLLL
.	48cc
.	48ffJJJ
*clefG2	*
48aLLL	16r
48cc	.
48ffJJJ	.
16r	48aaLLL
.	48ccc
.	48fffJJJ
=108	=108
4b- 4ff	16r
.	(16dddLL
.	16fff
.	16ddd
8a 8ff	16bb
.	16cccJJ)
=109	=109
16r	(48bb-LLL
.	48gg
.	48eeJ
(48b-LLL	16cc'JJ)
48g	.
48eJJJ	.
16c')	(48b-LLL
.	48g
.	48eJ
*clefF4	*
(48B-LLL	16c'JJ)
48G	.
48EJJJ	.
*	*clefF4
16C')	(48B-LLL
.	48G
.	48EJJ
(48BB-LLL	16C'JJ)
48GG	.
48EEJJJ	.
=110	=110
16CC')	(48B-LLL
.	48G
.	48EJJ
(48BB-LLL	16C'JJ)
48GG	.
48EEJJJ	.
16CC')	16r
8.BB-;	8.C; 8.E; 8.G;
=111	=111
48AAALLL	16r
48CC	.
48FFJJJ	.
16r	48AALLL
.	48C
.	48FJJJ
48AALLL	16r
48C	.
48FJJJ	.
*	*clefG2
16r	48ALLL
.	48c
.	48fJJJ
48ALLL	16r
48c	.
48fJJJ	.
16r	48aLLL
.	48cc
.	48ffJJJ
=112	=112
48BB-LLL	16r
48D	.
48GJJJ	.
16r	48B-LLL
.	48d
.	48gJJJ
*clefG2	*
16B- 16d 16g	16r
16r	8.dd 8.ddd
8r	.
=113	=113
*clefF4	*
8c 8f 8a	(16cccLL
.	16aa
8r	16ff
.	16cc
8C 8G	16b-
.	16eJJ)
=114	=114
8F 8A	(16fLL
.	16a
8r	16cc
.	16ff
8r	16aa
.	16cccJJ)
=115	=115
*staff2	*staff1
*clefF4	*clefG2
*k[b-]	*k[b-]
*M3/8	*M3/8
*F:	*F:
=	=
16r	(48bb-LLL
.	48gg
.	48eeJ
(48b-LLL	16cc'JJ)
48g	.
48eJJJ	.
16c')	(48b-LLL
.	48g
.	48eJ
*clefF4	*
(48B-LLL	16c'JJ)
48G	.
48EJJJ	.
*	*clefF4
16C')	(48B-LLL
.	48G
.	48EJJ
(48BB-LLL	16C'JJ)
48GG	.
48EEJJJ	.
=116	=116
16CC')	(48B-LLL
.	48G
.	48EJJ
(48BB-LLL	16C'JJ)
48GG	.
48EEJJJ	.
16CC')	16r
8.BB-;	8.C; 8.E; 8.G;
=117	=117
48AAALLL	16r
48CC	.
48FFJJJ	.
16r	48AALLL
.	48C
.	48FJJJ
48AALLL	16r
48C	.
48FJJJ	.
*	*clefG2
16r	48ALLL
.	48c
.	48fJJJ
48ALLL	16r
48c	.
48fJJJ	.
16r	48aLLL
.	48cc
.	48ffJJJ
=118	=118
48BB-LLL	16r
48D	.
48GJJJ	.
16r	48B-LLL
.	48d
.	48gJJJ
*clefG2	*
16B- 16d 16g	16r
16r	8.dd 8.ddd
8r	.
=119	=119
*clefF4	*
8c 8f 8a	(16cccLL
.	16aa
8r	16ff
.	16cc
8C 8G	16b-
.	16eJJ)
=120	=120
16r	48fLLL
.	48c
.	48AJJJ
48FLLL	16r
48C	.
48AAJJJ	.
*	*clefF4
16r	48FLLL
.	48C
.	48AAJJJ
48FFLLL	16r
48CC	.
48AAAJJJ	.
8FFF	8r
*	*clefG2
=121||	=121||
*staff2	*staff1
*clefF4	*clefG2
*k[b-]	*k[b-]
*M3/8	*M3/8
*d:	*d:
=	=
(8DDL	16r
.	16ALL 16d 16f
8FF	16A 16d 16f
.	16A 16d 16f
8DDJ)	16A 16d 16f
.	16AJJ 16d 16f
=122	=122
(16AALL	16ALL 16c# 16e
16GG#	16A 16c# 16e
16AA	16A 16c# 16e
16BB-J	16A 16c# 16e
8AAJ)	16A 16c# 16e
.	16AJJ 16c# 16e
=123	=123
(8GGL	16ALL 16c# 16e
.	16A 16c# 16e
8EE	16A 16c# 16e
.	16A 16c# 16e
8AAJ)	16A 16c# 16e
.	16AJJ 16c# 16e
=124	=124
(16GGLL	16ALL 16d 16f
16FF	16A 16d 16f
16EE	16A 16d 16f
16FFJ)	16A 16d 16f
8DDJ	16A 16d 16f
.	16AJJ 16d 16f
=125	=125
(8DDL	16ALL 16d 16f
.	16A 16d 16f
8FF	16A 16d 16f
.	16A 16d 16f
8GGJ)	16B 16d 16f
.	16BJJ 16d 16f
=126	=126
(16AALL	16BLL 16d 16e
16GG#	16B 16d 16e
16AA	16B 16c 16e
16BBJ)	16B 16c 16e
8CJ	16A 16c 16e
.	16AJJ 16c 16e
=127	=127
(16CLL	16G#LL 16d 16e
16BBJ	16G# 16d 16e
8AA	16A 16c 16e
.	16A 16c 16e
8GG#J)	16B 16d 16e
.	16BJJ 16d 16e
=128	=128
4.AA	16ALL 16c 16e
.	16A 16c 16e
.	16A 16c 16e
.	16A 16c 16e
.	16A 16c# 16e
.	16AJJ 16c# 16e
=129	=129
*staff2	*staff1
*clefF4	*clefG2
*k[b-]	*k[b-]
*M3/8	*M3/8
*d:	*d:
=	=
8AAL	16ALL 16d 16f
.	16A 16d 16f
8AA	16A 16d 16f
.	16A 16d 16f
8DJ	16A 16d 16f#
.	16AJJ 16d 16f#
=130	=130
(4BB-	16dLL 16g
.	16d 16g
.	16d 16g#
.	16d 16g#
8AA)	16d 16f 16a
.	16dJJ 16f 16a
=131	=131
8AAL	16dLL 16f 16dd
.	16d 16f 16dd
8AA	16d 16f 16dd
.	16d 16f 16dd
8DJ	16d 16f# 16dd
.	16dJJ 16f# 16dd
=132	=132
(4BB-	16dLL 16g 16dd
.	16d 16g 16dd
.	16d 16g# 16dd
.	16d 16g# 16dd
8AA)	16d 16f 16a 16dd
.	16dJJ 16f 16a 16dd
=133	=133
8G'L	16eLL 16a 16cc#
.	16e 16a 16cc#
8E'J	16e 16a 16cc#
.	16e 16a 16cc#
8r	16e 16a 16cc#
.	16eJJ 16a 16cc#
=134	=134
8C#	16gLL 16a 16ee
.	16gJJ 16a 16ee
4AA;	4g; 4cc#; 4ee;
=135	=135
(8DL	16r
.	16d 16dd
8DD	16r
.	16d 16dd
8FFJ	16r
.	16d 16dd
=136	=136
8GGL	16r
.	16e 16dd
8BB-	16r
.	16e 16dd
8GG#J	16r
.	16e 16dd
=137	=137
8AAL	16r
.	16f 16dd
8AAA	16r
.	16g 16ee
8AAJ)	16r
.	16e 16cc#
=138	=138
4DD	16r
.	16dd
.	16aLL 16aa
.	16a 16aa
8r	16a 16aa
.	16aJJ 16aa
=139	=139
*staff2	*staff1
*clefF4	*clefG2
*k[b-]	*k[b-]
*M3/8	*M3/8
*d:	*d:
=	=
16GG 16G	16r
16r	16g 16gg
16EE 16E	16r
16r	16e 16ee
8r	8r
=140	=140
16CC# 16C#	16r
16r	16c# 16cc#
16AAA 16AA	16r
16r	16A 16a
8r	8r
=141	=141
(8DL	16r
.	16d 16dd
8DD	16r
.	16d 16dd
8FFJ	16r
.	16d 16dd
=142	=142
8GGL	16r
.	16e 16dd 16ee
8BB-	16r
.	16e 16dd 16ee
8GG#J	16r
.	16e 16dd 16ee
=143	=143
8AAL	16r
.	16f 16dd 16ff
8AAA	16r
.	16g 16ee 16gg
8AAJ	16r
.	16e 16cc# 16ee
=144	=144
8DDL 8D	16r
.	16d 16dd
*staff2	*staff1
*clefF4	*clefG2
*k[b-]	*k[b-]
*M3/8	*M3/8
*F:	*F:
*k[b-e-]	*k[b-e-]
8EE- 8E-	16r
.	16e- 16ee-
8CCJ) 8C	16r
.	16c 16cc
=145||	=145||
16BBB-LL 16BB-	(8b-L
16B-JJ 16d	.
16r	8dd
16B- 16d	.
16r	8b-J
16B- 16d	.
=146	=146
16FLL	8eL 8ee
16AJJ 16c	.
16r	8g 8gg
16A 16c	.
16r	8fJ 8ff
16A 16c	.
=147	=147
16FFLL	8e-L 8ee-
16E-JJ 16A	.
16r	8c 8cc
16E- 16A	.
16r	8fJ 8ff
16E- 16A	.
=148	=148
16BBB-LL 16BB-	8dL 8dd
16DJJ 16F	.
16r	8A 8a
16C 16E-	.
16r	8B-J 8b-
16BB- 16D	.
=149	=149
16GGLL	8b-L
16GJJ 16B-	.
16r	8d 8dd
16G 16B-	.
16r	8eJ 8ee
16G 16B-	.
=150	=150
16FFLL	8fL 8ff
16AJJ 16c	.
16r	8a) 8aa
16A 16c	.
16r	8ccJ 8ccc
16A 16c	.
=151	=151
16BB-LL	(16ccLL 16ccc
16d 16g	16b-) 16bb-
16C	(16b- 16bb-
16c 16f	16a) 16aa
16C	(16a 16aa
16B-JJ 16e	16gJJ) 16gg
=152	=152
8F 8A 8c	(16gLL 16gg
.	16f) 16ff
8r	(16e 16ee
.	16f) 16ff
8r	(16e 16ee
.	16fJJ) 16ff
=153	=153
*staff2	*staff1
*clefF4	*clefG2
*k[b-]	*k[b-]
*M3/8	*M3/8
*Bb:	*Bb:
=	=
16r	(8fL 8ff
16D 16B-	.
16r	8b- 8bb-
16D 16B-	.
16r	8a-J 8aa-
16D 16B-	.
=154	=154
16r	8f#L 8ff#
16E- 16B-	.
16r	8g) 8gg
16E- 16B-	.
16r	8fJ 8ff
16D 16B-	.
=155	=155
16r	(8fL 8ff
16D 16B-	.
16r	8b- 8bb-
16D 16B-	.
16r	8a-J 8aa-
16D 16B-	.
=156	=156
16r	8f#L 8ff#
16E- 16B-	.
16r	8g) 8gg
16E- 16B-	.
16r	8fJ 8ff
16D 16B-	.
=157	=157
16r	8e-' 8ee-'
16F	.
16r	4e- 4a 4cc
16FLL	.
16F	.
16FJJ	.
=158	=158
16r	8c' 8e-' 8a'
16FFF 16FF	.
16r	4A; 4c; 4e-;
16FFFLL 16FF	.
16FFF 16FF	.
16FFF;JJ 16FF;	.
=159	=159
16r	(8b-L 8bb-
16D 16B-	.
16r	8f 8ff
16D 16B-	.
16r	8f#J 8ff#
16D 16B-	.
=160	=160
16r	8gL 8gg
16E- 16B-	.
16r	8c 8cc
16E- 16B-	.
16r	8c#J 8cc#
16E 16B-	.
=161	=161
16r	8dL 8dd
16F 16B-	.
16r	8e-) 8ee-
16F 16c	.
16r	8cJ 8cc
16F 16A	.
=162	=162
8BB- 8B-	16r
.	(16b-LL
8r	16a
.	16b-
8r	16cc
.	16ddJJ)
=163	=163
*staff2	*staff1
*clefF4	*clefG2
*k[b-]	*k[b-]
*M3/8	*M3/8
*Bb:	*Bb:
=	=
16r	8a' 8cc' 8ee-'
16F	.
16r	4e- 4a 4cc
16FLL	.
16F	.
16FJJ	.
=164	=164
16r	8c' 8e-' 8a'
16FFF 16FF	.
16r	4F; 4A; 4c; 4e-;
16FFFLL 16FF	.
16FFF 16FF	.
16FFF;JJ 16FF;	.
=165	=165
16r	(8b-L 8bb-
16D 16B-	.
16r	8f 8ff
16D 16B-	.
16r	8f#J 8ff#
16D 16B-	.
=166	=166
16r	8gL 8gg
16E- 16B-	.
16r	8c 8cc
16E- 16B-	.
16r	8c#J 8cc#
16E 16B-	.
=167	=167
16r	8dL 8dd
16F 16B-	.
16r	8e- 8ee-
16F 16c	.
16r	8cJ 8cc
16F 16A	.
=168	=168
16r	8B-L 8b-
16BB-	.
*staff2	*staff1
*clefF4	*clefG2
*k[b-]	*k[b-]
*M3/8	*M3/8
*F:	*F:
*k[b-]	*k[b-]
16r	8G 8g
16GG	.
16r	8cJ) 8cc
16C	.
=	=
*^	*
16FFLL	4.FF	8fL
16C	.	.
16F	.	8.a
16C	.	.
16F	.	.
16CJJ	.	16fJk
=170	=170	=170
16EELL	4.EE	(8dd
16C	.	.
16G	.	4cc)
16C	.	.
16G	.	.
16CJJ	.	.
=171	=171	=171
16EELL	4.EE	(32ccLLL
.	.	32dd
16C	.	32ee
.	.	32ffJJJ
16G	.	32aaLLL
.	.	32gg
16C	.	32ff
.	.	32eeJJJ
16G	.	32ddLLL
.	.	32cc
16CJJ	.	32dd
.	.	32gJJJ)
=172	=172	=172
16FFLL	4.FF	(8b-
16C	.	.
16F	.	4a)
16C	.	.
16F	.	.
16CJJ	.	.
*v	*v	*
=173	=173
*^	*
16AALL	4AA	[8f
16C	.	.
16F	.	32fLLL]
.	.	(64gL
.	.	64aJJJ
16C	.	64b-LLL
.	.	64cc
.	.	64dd
.	.	64eeJJJJ)
16AA	8FF	(64ffLLLL
.	.	64ee
.	.	64ff
.	.	64ggJJJ
16CJJ	.	64aaLLL
.	.	64gg
.	.	64aa
.	.	64bbJJJJ)
=174	=174	=174
16GGLL	4EE	(64cccLLLL
.	.	64bb
.	.	64ccc
.	.	64dddJJ)
16C	.	[16eeeJJ
16GG	.	(32eeeLLL]
.	.	32ddd)
16C	.	(32ccc
.	.	32bb-JJ)
16GG	8EE	(32aaLL
.	.	32gg)
16CJJ	.	(32ff
.	.	32eeJJJ)
*v	*v	*
=175	=175
16FFLL 16AA	(64eeLLLL
.	64dd
.	64cc#
.	64ddJJJ
16D	64ffLLL
.	64aa
.	64ff
.	64ddJJJJ)
16GG 16C	64r
.	(64ccLLLL
.	64b
.	64ccJJJ
16E	64eeLLL
.	64gg
.	64ee
.	64ccJJJJ)
16GG 16D	64r
.	(64bLLLL
.	64a#
.	64bJJJ
16FJJ	64ddLLL
.	64ff
.	64dd
.	64bJJJJ)
=176	=176
*^	*
16r	4C	(8ddL
(16FLL	.	.
16E	.	8ccJ)
16G	.	.
16E	8BB-	8r
16CJJ)	.	.
*v	*v	*
=177	=177
*staff2	*staff1
*clefF4	*clefG2
*k[b-]	*k[b-]
*M3/8	*M3/8
*F:	*F:
=	=
16AALL	(8cL
16F	.
16C	8.f
16F	.
16AA	.
16FJJ	16cJk)
=178	=178
16BB-LL	(8eL
16F	.
16BB-	8d
16F	.
16BB-	8cJ)
16FJJ	.
=179	=179
16FFLL	(96ALLLL
.	96c
.	96B-JJJ
.	96ALLL
.	96B-
.	96cJJJ
16F	96dLLL
.	96e
.	96fJJJ
.	96gLLL
.	96a
.	96b-JJJJ
16AA	96ccLLLL
.	96dd
.	96eeJJJ
.	96ffLLL
.	96gg
.	96aaJJJ
16F	96bb-LLL
.	96aa
.	96cccJJJ
.	96bb-LLL
.	96ddd
.	96cccJJJJ
16C	64bb-LLLL
.	64aa
.	64gg
.	64ffJJJ
16FJJ	64eeLLL
.	64ff
.	64gg
.	64ffJJJJ)
=180	=180
16BB-LL	(8eeL
16F	.
16BB-	8dd
16F	.
16AA	8ccJ)
16FJJ	.
=181	=181
16CCLL	32b-
.	64r
.	(64bb-LKKK
16C	48aaLL
.	48ccc
.	48bb-JJJ)
16E	32r
.	64r
.	(64ggLKKK
16C	48ff#LL
.	48aa
.	48ggJJJ)
16G	32r
.	64r
.	(64eeLKKK
16CJJ	48dd#LL
.	48ff
.	48eeJJJ)
=182	=182
16GLL 16B-	32r
.	64r
.	(64b-LKKK
16CJJ	48aLL
.	48cc
.	48b-JJJ)
8C; 8E; 8G;	[8g;
8r	64gLLLL]
.	(64a
.	64b-
.	64bJJJ
.	64ccLLL
.	64cc#
.	64dd
.	64eeJJJJ)
=183	=183
*^	*
16AALL	4AA	[8ff
16F	.	.
16C	.	32ffLLL]
.	.	(32ee
16F	.	32dd
.	.	32ccJJJ
16AA	8AA	32ddLLL
.	.	32cc
16FJJ	.	32b-
.	.	32aJJJ)
*v	*v	*
=184	=184
*^	*
16BB-LL	4BB-	(16f#LL
16G	.	[16gJJ)
16D	.	16gLL]
16G	.	(32.gL
.	.	64aJJk
16BB-	8BB-	32b-LL
.	.	32cc
16GJJ	.	32cc#
.	.	32ddJJJ)
=185	=185	=185
16CLL	4C	(16bLL
16A	.	[16ccJJ)
16F	.	32ccLLL]
.	.	(32cc#
16A	.	32dd
.	.	32ccJJJ
16E	8C	32ccLLL
.	.	32b-
16B-JJ	.	32a
.	.	32gJJJ)
=186	=186	=186
8A	8F	32f'LLL
.	.	32a'
.	.	32b-'
.	.	32cc'JJJ
8r	8r	32dd'LLL
.	.	32ee'
.	.	32ff'
.	.	32gg'JJJ
8r	8r	32aa-'LLL
.	.	32aa'
.	.	32bb-'
.	.	32bb'JJJ
*clefG2	*clefG2	*
*v	*v	*
=187	=187
*staff2	*staff1
*clefF4	*clefG2
*k[b-]	*k[b-]
*M3/8	*M3/8
*F:	*F:
=	=
16g 16b-	32cccLLL
.	32ccc
16r	32ccc
.	32cccJJJ
16e 16g	32cccLLL
.	32ccc
16r	32ccc
.	32cccJJJ
8r	32cccLLL
.	32ccc
.	32ccc
.	32cccJJJ
*clefF4	*
=188	=188
16G'LL 16B-'	32cccLLL
.	32ccc
16E'JJ 16G'	32ccc
.	32cccJJJ
16GG'LL 16BB-'	32cccLLL
.	32ccc
16EE'JJ 16GG'	32ccc
.	32cccJJJ
*clefG2	*
16g'LL 16b-'	32cccLLL
.	32ccc
16e'JJ 16g'	32ccc
.	32cccJJJ
=189	=189
16gg'LL	32r
.	32bb- 32ccc
16ee'	32r
.	32gg 32ccc
16gg'	32r
.	32bb- 32ccc
16ee'	32r
.	32gg 32ccc
16gg'	32r
.	32bb- 32ccc
16ee'JJ	32r
.	32gg 32ccc
=190	=190
32gg'LLL	64r
.	64bb- 64ccc
32ee'	64r
.	64gg 64ccc
32ff'	64r
.	64aa- 64ccc
32ff#'JJJ	64r
.	64aa 64ccc
32gg'LLL	64r
.	64bb- 64ccc
32ee'	64r
.	64gg 64ccc
32ff'	64r
.	64aa- 64ccc
32ff#'JJJ	64r
.	64aa 64ccc
32gg'LLL	64r
.	64bb- 64ccc
32ee'	64r
.	64gg 64ccc
32ff'	64r
.	64aa- 64ccc
32ff#'JJJ	64r
.	64aa 64ccc
=191	=191
32gg'LLL	64r
.	64bb- 64ccc
32ff#'	64r
.	64aa 64ccc
32gg'	64r
.	64bb- 64ccc
32ff#'JJJ	64r
.	64aa 64ccc
32gg'LLL	64r
.	64bb- 64ccc
32ff#'	64r
.	64aa 64ccc
32gg'	64r
.	64bb- 64ccc
32ff#'JJJ	64r
.	64aa 64ccc
32gg'LLL	64r
.	64bb- 64ccc
32ff#'	64r
.	64aa 64ccc
32gg'	64r
.	64bb- 64ccc
32ff#'JJJ	64r
.	64aa 64ccc
=192	=192
4.gg;	4.gg;
*clefF4	*
=193	=193
*^	*
16AALL	4AA	[8fff
16F	.	.
16C	.	64fffLLLL]
.	.	(64eee
.	.	64ddd
.	.	64ccc
16F	.	64bbn
.	.	64ccc
.	.	64ddd
.	.	64cccJJJJ
16AA	8AA	64bb-LLLL
.	.	64aa
.	.	64gg
.	.	64ffJJJ
16FJJ	.	64eeLLL
.	.	64ff
.	.	64aa
.	.	64ffJJJJ
*v	*v	*
=194	=194
*^	*
16BB-LL	4BB-	64eeLLLL
.	.	64dd
.	.	64cc#
.	.	64ddJJJ
16G	.	64eeLLL
.	.	64dd
.	.	64ff
.	.	64ddJJJJ
16D	.	64ccLLLL
.	.	64b-
.	.	64a
.	.	64b-JJJ
16G	.	64ccLLL
.	.	64b-
.	.	64dd
.	.	64b-JJJJ
16BB-	8BB-	64aLLLL
.	.	64g
.	.	64b-
.	.	64aJJJ
16GJJ	.	64ccLLL
.	.	64b-
.	.	64a
.	.	64gJJJJ)
=195	=195	=195
16CLL	4C	16ccLL
16F	.	[16aaJJ
16A	.	32aaLLL]
.	.	(64ggL
.	.	64ffJJJ
16c	.	64eeLLL
.	.	64dd
.	.	64cc
.	.	64bJJJJ
(16E	8C	64ddLLLL
.	.	64cc
.	.	64b-
.	.	64aJJJ
16B-JJ)	.	64ccLLL
.	.	64b-
.	.	64a
.	.	64gJJJJ)
*v	*v	*
=196	=196
32r	(4B- 4c 4g
(32FF'LLL	.
32GG'	.
32AA'	.
32BB-'	.
32C'	.
32D'	.
32E'JJJ)	.
8FF; 8F;	8A;) 8c; 8f;
=197||	=197||
*staff2	*staff1
*clefF4	*clefG2
*k[b-]	*k[b-]
*F:	*F:
*M2/4	*M2/4
=	=
2r	8f
.	4a
.	8f
=198	=198
2r	4cc
.	(16bLL
.	16cc
.	16dd
.	16ccJJ)
=199	=199
2r	8b-'L
.	8b-'
.	8g'
.	8cc'J
=200	=200
2r	8a'L
.	8cc'
.	8f'
.	8a'J
*clefG2	*
=201	=201
8c	8e'L
4e	8g'
.	8cc'
8c	8cc'J
=202	=202
4f	(8ccL
.	8bJ)
(16eLL	8r
16f	.
16g	8b
16fJJ)	.
=203	=203
8e'L	8ggL
8e'	8b-J
8c'	8r
8e-'J	8a
=204	=204
8d'L	8b-L
8B-'	8ff
8e'	8b-
8c'J	8ggJ
*clefF4	*
=205	=205
*	*^
8F	4a	8fL
4A	.	8c
.	8r	8f
8F	8a	8fJ
=206	=206	=206
4c	4g	(8fL
.	.	8eJ)
(16BLL	4r	8r
16c	.	.
16d	.	8e
16cJJ)	.	.
=207	=207	=207
8B-'L	8r	8ccL
8B-'	8cc'L	8e
8G'	8dd'	8f
8c'J	8ee'J	8gJ
*	*v	*v
=208	=208
8A'L	8a'L 8ff'
8F'J	8cc'J 8aa'
*	*^
(16G#LL	4r	4r
16A	.	.
16B-	.	.
16AJJ)	.	.
*	*v	*v
=209	=209
8G'L	8r
8G'	8c#'L 8a'
8E'	8d' 8b'
8A'J	8e'J 8cc#'
=210	=210
8F'L	8f'L 8dd'
8D'J	8a'J 8ff'
(16ELL	4r
16F	.
16G	.
16FJJ)	.
=211	=211
8E-'L	8r
8E-'	8A'L 8f'
8C'	8B-' 8g'
8F'J	8c'J 8a'
=212	=212
*staff2	*staff1
*clefF4	*clefG2
*k[b-]	*k[b-]
*M2/4	*M2/4
*F:	*F:
=	=
8D'L	8d 8b-
8F'	4dd
8BB-'	.
8D'J	8b-
=213	=213
8AA'L	4ff
8C'	.
8FF'	(16eeLL
.	16ff
8AA'J	16gg
.	16ffJJ)
=214	=214
8GG'L	8ee-'L
8BB-'	8ee-'
8AA'	8cc'
8C'J	8ff'J
=215	=215
8BB-'L	8dd'L
8D'	8b-'J
8DD'	(16c#LL
.	16d
8FF#'J	16e-
.	16dJJ)
=216	=216
8EE'L	8c'L
8GG'	8c'
8FF#'	8A'
8AA'J	8d'J
=217	=217
8GG'L	8B-'L
8BB-'	8G'J
8EE'	(16bLL
.	16cc
8GG'J	16dd
.	16ccJJ)
=218	=218
8FF'L	8a'L
8AA'	8f'J
8DD'	8ff'L
8D'J	8b'J
=219	=219
4CC	8cc'
.	4ee
4C	.
.	8cc
=220	=220
*	*^
4CC	2ff	8a'
.	.	4dd
4C	.	.
.	.	8b
=221	=221	=221
4CC	8ee'	8g
.	4ee	8r
4C	.	4r
.	8cc	.
=222	=222	=222
4CC	2b	8d'
.	.	4f
4C	.	.
.	.	8d
*	*v	*v
=223	=223
*	*^
4CC	8cc	8e
.	4ee	8r
4C	.	4r
.	8cc	.
=224	=224	=224
4CC	2ff	8a
.	.	4dd
4C	.	.
.	.	8b
=225	=225	=225
4CC	8ee	8g
.	4ee	8r
4C	.	4r
.	8cc	.
=226	=226	=226
4CC	2b	8d
.	.	4f
4C	.	.
.	.	8d
*	*v	*v
=227	=227
4CC	(4.e 4.cc
4C	.
.	8g) 8dd
=228	=228
4CC	(4.e 4.cc
4C	.
.	8g) 8dd
=229	=229
4CC	(4.e 4.cc
4C	.
.	8g) 8dd
=230	=230
2r	(8eL 8cc
.	8g 8dd
.	8e 8cc
.	8gJ) 8dd
=231	=231
2r	(8eL 8cc
.	8g 8dd
.	8e 8cc
.	8gJ) 8dd
=232	=232
2r	(8eL 8cc
.	8g 8dd
.	8e 8cc
.	8gJ) 8dd
=233	=233
2r	(8eL 8cc
.	8b
.	8cc
.	8bJ
=234	=234
2r	8ccL
.	8b
.	8cc
.	8bJ
=235	=235
2r	8ccL
.	8b
.	8cc
.	8bJ
=236	=236
2r	8ccL
.	8b
.	8cc
.	8bJ)
=237	=237
*staff2	*staff1
*clefF4	*clefG2
*k[b-]	*k[b-]
*M2/4	*M2/4
*F:	*F:
=	=
8r	8cc'L
(8FL	(8cc
8A	8ff)
8FJ	(8ffJ
=238	=238
8B-L	8eeL
8F	8dd
8AJ)	8cc)
8r	(8bJ
*clefG2	*
=239	=239
8r	8ccL)
(8fL	(8cc
8a	8ff)
8fJ	(8ffJ
=240	=240
8b-L	8eeL
8f	8dd
8aJ)	8cc)
8r	(8bJ
*clefF4	*
=241	=241
2r	8ccL
.	8b
.	8cc
.	8bJ
=242	=242
2r	8ccL
.	8b
.	8cc
.	8bJ)
=243	=243
8r	8cc'L 8ee-'
(8A-L	(8ee-
8c	8aa-)
8A-J	(8aa-J
=244	=244
8d-L	8ggL
8A-	8ff
8cJ)	8ee-)
8r	(8ddJ
*clefG2	*
=245	=245
8r	8ee-L)
(8a-L	(8ee-
8cc	8aa-)
8a-J	(8aa-J
=246	=246
8dd-L	8ggL
8a-	8ff
8ccJ)	8ee-)
8r	(8ddJ
*clefF4	*
=247	=247
2r	8ee-L
.	8dd
.	8ee-
.	8ddJ
=248	=248
2r	8ee-L
.	8dd
.	8ee-
.	8ddJ)
=249	=249
8r	8dd#'L 8ff#'
(8BL	(8ff#
8d#	8bb)
8BJ	(8bbJ
=250	=250
8eL	8aa#L
8B	8gg#
8d#J)	8ff#)
8r	(8ee#J
*clefG2	*
=251	=251
8r	8ff#L)
(8bL	(8ff#
8dd#	8bb)
8bJ	(8bbJ
=252	=252
8eeL	8aa#L
8b	8gg#
8dd#J)	8ff#)
8r	(8ee#J
*clefF4	*
=253	=253
2r	8ff#L
.	8ee#
.	8ff#
.	8ee#J
=254	=254
2r	8ff#L
.	8ee#
.	8ff#
.	8ee#J)
=255	=255
2r	(8ff#L 8aa
.	8ee# 8gg#
.	8ff# 8aa
.	8ee#J 8gg#
=256	=256
2r	8ff#L 8aa
.	8ee# 8gg#
.	8ff# 8aa
.	8ee#J) 8gg#
*clefG2	*
=257	=257
*staff2	*staff1
*clefF4	*clefG2
*k[b-]	*k[b-]
*M2/4	*M2/4
*F:	*F:
=	=
8d	8ddL 8ff# 8aa
4f#	8ddJ 8ff# 8aa
.	8ddL 8ff# 8aa
8d	8ddJ 8ff# 8aa
=258	=258
4a	8cc#L 8ee 8aa
.	8cc#J 8ee 8aa
(16g#LL	8cc#L 8ee 8aa
16a	.
16b	8cc#J 8ee 8aa
16aJJ)	.
=259	=259
8g'L	8cc#L 8ee 8aa
8g'	8cc#J 8ee 8aa
8e'	8cc#L 8ee 8aa
8a'J	8cc#J 8ee 8aa
=260	=260
8f#'L	8dd'L 8ff#' 8aa'
8d'J	8dd'J 8ff#' 8aa'
*	*^
4r	(16gg#LL	4r
.	16aa	.
.	16bb	.
.	16aaJJ)	.
*	*v	*v
=261	=261
8c#L 8e 8a	8gg'L
8c#J 8e 8a	8ee'J
8c#L 8e 8a	4r
8c#J 8e 8a	.
*	*clefF4
=262	=262
8dL 8f# 8a	8F#'L
8dJ 8f# 8a	8D'J
8dL 8f# 8a	4r
8dJ 8f# 8a	.
*	*clefG2
=263	=263
8c#L 8e 8a	8gg'L
8c#J 8e 8a	8ee'J
8c#L 8e 8a	4r
8c#J 8e 8a	.
*	*clefF4
=264	=264
8dL 8f 8a	8Fn'L
8dJ 8f 8a	8D'J
8dL 8f 8a	4r
8dJ 8f 8a	.
*	*clefG2
=265	=265
8AL 8c 8f	8ee-'L
8AJ 8c 8f	8cc'J
8AL 8c 8f	4r
8AJ 8c 8f	.
*	*clefF4
=266	=266
8B-L 8d 8f	8DL
8B-J 8d 8f	8BB-J
8B-L 8d 8f	4r
8B-J 8d 8f	.
*clefF4	*clefG2
=267	=267
8F#L 8A 8d	8ccL
8F#J 8A 8d	8aJ
8F#L 8A 8d	4r
8F#J 8A 8d	.
*	*clefF4
=268	=268
8GL 8B- 8d	8BB-L
8GJ 8B- 8d	8GGJ
8GL 8B- 8d	4r
8GJ 8B- 8d	.
*	*clefG2
=269	=269
8EL 8G 8c	8b-L
8EJ 8G 8c	8gJ
8EL 8G 8c	4r
8EJ 8G 8c	.
*	*clefF4
=270	=270
8FL 8A 8c	8AAL
8FJ 8A 8c	8FFJ
8FL 8A 8c	4r
8FJ 8A 8c	.
*	*clefG2
=271	=271
8GL 8B- 8c	8eeL
8GJ 8B- 8c	8ccJ
8GL 8B- 8c	4r
8GJ 8B- 8c	.
*	*clefF4
=272	=272
8FL 8A 8c	8FFL
8FJ 8A 8c	8CCJ
8FL 8A 8c	4r
8FJ 8A 8c	.
*	*clefG2
=273	=273
8EL 8G 8c	8b-L
8EJ 8G 8c	8gJ
8EL 8G 8c	4r
8EJ 8G 8c	.
*	*clefF4
=274	=274
8FL 8A 8c	8AAL
8FJ 8A 8c	8FFJ
8FL 8A 8c	4r
8FJ 8A 8c	.
*	*clefG2
=275	=275
8GL 8B- 8c	8eeL
8GJ 8B- 8c	8ccJ
8GL 8B- 8c	4r
8GJ 8B- 8c	.
*	*clefF4
=276	=276
8FL 8A 8c	8FFL
8FJ 8A 8c	8CCJ
8FL 8A 8c	4r
8FJ 8A 8c	.
*	*clefG2
=277	=277
8EL 8G 8c	8ggL
8EJ 8G 8c	8ccJ
8EL 8G 8c	4r
8EJ 8G 8c	.
*	*clefF4
=278	=278
8FL 8A 8c	8AAL
8FJ 8A 8c	8CCJ
8FL 8A 8c	4r
8FJ 8A 8c	.
*	*clefG2
=279	=279
8FL 8G 8d	8bbL
8FJ 8G 8d	8ccJ
8FL 8G 8d	4r
8FJ 8G 8d	.
*	*clefF4
=280	=280
8EL 8G 8c	8CL
8EJ 8G 8c	8CCJ
8EL 8G 8c	4r
8EJ 8G 8c	.
*	*clefG2
=281	=281
8FL 8G 8d	8bbL
8FJ 8G 8d	8ccJ
8FL 8G 8d	4r
8FJ 8G 8d	.
*	*clefF4
=282	=282
8EL 8G 8c	8CL
8EJ 8G 8c	8CCJ
8EL 8G 8c	4r
8EJ 8G 8c	.
*	*clefG2
=283	=283
8FL 8G 8d	8bbL
8FJ 8G 8d	8ccJ
8FL 8G 8d	4r
8FJ 8G 8d	.
=284	=284
8EL 8G 8c	8cccL
8EJ 8G 8c	8ccJ
8EL 8G 8c	4r
8EJ 8G 8c	.
=285	=285
8DL 8F 8B-	8bb-L
8DJ 8F 8B-	8b-J
8DL 8F 8B-	4r
8DJ 8F 8B-	.
=286	=286
8CL 8E 8A	8aaL
8CJ 8E 8A	8aJ
8CL 8E 8A	4r
8CJ 8E 8A	.
=287	=287
8BB-L 8D 8G	8ggL
8BB-J 8D 8G	8gJ
8BB-L 8D 8G	4r
8BB-J 8D 8G	.
=288	=288
4AA' 4C' 4F'	16ffLL
.	16cc
.	16a
.	16fJJ
4BB-' 4D' 4G'	16ddLL
.	16b-
.	16g
.	16dJJ
=289	=289
4C' 4F' 4A'	16ccLL
.	16a
.	16f
.	16cJJ
4CC 4C	16eLL
.	16c
.	16B-
.	16GJJ
=290	=290
*staff2	*staff1
*clefF4	*clefG2
*k[b-]	*k[b-]
*M2/4	*M2/4
*F:	*F:
=	=
(16GGLL	8A 8c 8f
16FF	.
16EE	4a
16FFJJ)	.
8FFF	.
8r	8f
=291	=291
(16GGLL	8e 8b- 8cc
16FF	.
16EE	4e 4b- 4cc
16FFJJ)	.
8FFF	.
8r	8e 8b- 8cc
=292	=292
(16GGLL	8e 8b- 8cc
16FF	.
16EE	4e 4b- 4cc
16FFJJ)	.
8FFF	.
8r	8e 8b- 8cc
=293	=293
*	*^
(16GGLL	(8ccL	4f 4a
16FF	.	.
16EE	8ffJ)	.
16FFJJ)	.	.
8FFF	8cc'L	4r
8r	8cc'J	.
*	*v	*v
=294	=294
(16GGLL	8A 8c 8f
16FF	.
16EE	4a
16FFJJ)	.
8FFF	.
8r	8f
=295	=295
(16GGLL	8e 8b- 8cc
16FF	.
16EE	4e 4b- 4cc
16FFJJ)	.
8FFF	.
8r	8e 8b- 8cc
=296	=296
(16GGLL	8e 8b- 8cc
16FF	.
16EE	4e 4b- 4cc
16FFJJ)	.
8FFF	.
8r	8e 8b- 8cc
=297	=297
*	*^
(16GGLL	(8ccL	4f 4a
16FF	.	.
16EE	8ffJ)	.
16FFJJ)	.	.
8FFF	8cc'L	4r
8r	8cc'J	.
*	*v	*v
=298	=298
(16GGLL	8e 8b- 8cc
16FF	.
16EE	4e 4b- 4cc
16FFJJ)	.
8FFF	.
8r	8e 8b- 8cc
=299	=299
*	*^
(16GGLL	(8ccL	4f 4a
16FF	.	.
16EE	8ffJ)	.
16FFJJ)	.	.
8FFF	8cc'L	4r
8r	8cc'J	.
*	*v	*v
=300	=300
(16GGLL	8e 8b- 8cc
16FF	.
16EE	4e 4b- 4cc
16FFJJ)	.
8FFF	.
8r	8e 8b- 8cc
=301	=301
8FF	(4.f 4.a 4.cc
8r	.
4r	.
*	*^
.	8b	8r
*	*v	*v
=302	=302
2r	4.cc
.	8b
=303	=303
2r	8ccL
.	8b
.	8cc
.	8bJ
=304	=304
2r	8ccL
.	8b
.	8cc
.	8bJ
=305	=305
2r	8ccL
.	8b
.	8cc
.	8bJ
=306	=306
2r	8ccL
.	8cc#
.	8dd
.	8eeJ)
=	=
*staff2	*staff1
*clefF4	*clefG2
*k[b-]	*k[b-]
*M3/8	*M3/8
*F:	*F:
=	=
!adagio	!adagio
*^	*
8AAL	4.AA	(8ffL
[8C	.	8.f
8CJ] 8F	.	.
.	.	16aJk)
=307	=307	=307
8BB-L	4.BB-	(16aLL
.	.	16gJJ)
[8D	.	([8g
8DJ] 8G	.	32gLLL]
.	.	32b-
.	.	32dd
.	.	32ccJJJ)
=308	=308	=308
(8AL	4C	(8ccL
16FL	.	16aL
16A	.	16cc
16G	8C	16b-
16EJJ)	.	16gJJ)
=309	=309	=309
8F	8FF	32f'LLL
.	.	32cc'
.	.	32dd'
.	.	32ee'JJJ
8r	8r	32ff'LLL
.	.	32gg'
.	.	32aa'
.	.	32bb-'JJJ
8r	8r	32ccc'LLL
.	.	32ddd'
.	.	32eee-'
.	.	32eee'JJJ
=310	=310	=310
8AAL	4.AA	32fff'LLL
.	.	(32eee
.	.	32fff)
.	.	(32eeeJJ
[8C	.	32fffLL)
.	.	(32eee
.	.	32ddd)
.	.	(32cccJJ
8CJ] 8F	.	32bb-LL)
.	.	(32aa
.	.	32gg)
.	.	(32ffJJJ
*v	*v	*
=311	=311
*^	*
8BB-L	4.BB-	32dddLLL)
.	.	(32ccc#
.	.	32ddd)
.	.	(32ccc#JJ
[8D	.	32dddLL)
.	.	(32ccc
.	.	32bb-)
.	.	(32aaJJ
8DJ] 8G	.	32ggLL)
.	.	(32ff
.	.	32ee)
.	.	(32ddJJJ
*v	*v	*
=312	=312
8C 8F 8A	32ccLLL)
.	(32ff
.	32aa)
.	(32gg#JJ
8r	32bb-LL)
.	(32aa
.	32gg)
.	(32ffJJ
8r	32eeLL)
.	(32dd
.	32cc)
.	(32bJJJ
=313	=313
8CC	32ddLLL)
.	(32cc
.	32b-)
.	(32aJJ
8r	32gLL)
.	(32f
.	32e)
.	(32dJJ
8r	32cLL)
.	(32B-
.	32A)
.	(32GJJJ
=314	=314
8FF	8F)
8r	8r
8FF' 8AA' 8C' 8F'	8f' 8a' 8cc' 8ff'
=315	=315
8FFF' 8FF'	8ff' 8aa' 8ccc' 8fff'
8r	8r
8r	8r
==	==
*-	*-
